X:0306
T:The Fairy Dance
P:The Fairy Dance
C:Nathaniel Gow 1802
R:Reel (8x32)
B:RSCDS 3-6
Z:Anselm Lingnau <anselm@strathspey.org>
M:C|
L:1/8
K:D
"D"{de}f2fd f2fd | f2fd "A"cAec | "D"f2fd "Em"gfed | "A7"cABc "D"d2de |
"D"f2fd f2fd | f2fd "A"cAec | "D"f2fd "Em"gfed | "A7"cA"A7"Bc "D"de"A7"fg |
"D"a2af "B7"[b2^d2]ba | "Em"gfge "A"[a2c2]ag | "D"fefd "G"B2ge | "A"cABc "Bm"de"A7"fg |
"D"a2af "B7"[b2^d2]ba | "Em"gfge "A"a2ag | "D"fefd "G"B2ge | "A"cABc "D"d2z2 |]
